src/ui/server-stack-fill.svg

<?xml version="1.0" encoding="UTF-8"?><svg xmlns="http://www.w3.org/2000/svg" width="32" height="32" viewBox="0 0 32 32"><defs><style>.uuid-4d23f4c4-cfe8-4de5-99eb-9d133cb5adf0{fill:none;}.uuid-a42b1f21-6f24-43b0-80ef-7468e14f3917{fill:#151515;}</style></defs><g id="uuid-d513167f-3687-417e-b4ce-25dc9322bc41"><rect class="uuid-4d23f4c4-cfe8-4de5-99eb-9d133cb5adf0" width="32" height="32"/></g><g id="uuid-2eee2430-276d-41e1-b30a-e9e0249bb9c4"><path class="uuid-a42b1f21-6f24-43b0-80ef-7468e14f3917" d="M28.5,1H3.5c-.82715,0-1.5.67285-1.5,1.5v27c0,.82715.67285,1.5,1.5,1.5h25c.82715,0,1.5-.67285,1.5-1.5V2.5c0-.82715-.67285-1.5-1.5-1.5ZM13,25.125h-5c-.62109,0-1.125-.50391-1.125-1.125s.50391-1.125,1.125-1.125h5c.62109,0,1.125.50391,1.125,1.125s-.50391,1.125-1.125,1.125ZM13,17.125h-5c-.62109,0-1.125-.50391-1.125-1.125s.50391-1.125,1.125-1.125h5c.62109,0,1.125.50391,1.125,1.125s-.50391,1.125-1.125,1.125ZM13,9.125h-5c-.62109,0-1.125-.50391-1.125-1.125s.50391-1.125,1.125-1.125h5c.62109,0,1.125.50391,1.125,1.125s-.50391,1.125-1.125,1.125ZM23.00488,25.8761c-1.03552,0-1.875-.83948-1.875-1.875s.83948-1.875,1.875-1.875,1.875.83948,1.875,1.875-.83948,1.875-1.875,1.875ZM23.00488,17.8761c-1.03552,0-1.875-.83948-1.875-1.875s.83948-1.875,1.875-1.875,1.875.83948,1.875,1.875-.83948,1.875-1.875,1.875ZM23.00488,9.89117c-1.03552,0-1.875-.83948-1.875-1.875s.83948-1.875,1.875-1.875,1.875.83948,1.875,1.875-.83948,1.875-1.875,1.875Z"/></g></svg>

<svg xmlns="http://www.w3.org/2000/svg" viewBox="0 0 32 32">
  <path d="M28.5 1h-25C2.673 1 2 1.673 2 2.5v27c0 .827.673 1.5 1.5 1.5h25c.827 0 1.5-.673 1.5-1.5v-27c0-.827-.673-1.5-1.5-1.5ZM13 25.125H8a1.125 1.125 0 0 1 0-2.25h5a1.125 1.125 0 0 1 0 2.25Zm0-8H8a1.125 1.125 0 0 1 0-2.25h5a1.125 1.125 0 0 1 0 2.25Zm0-8H8a1.125 1.125 0 0 1 0-2.25h5a1.125 1.125 0 0 1 0 2.25Zm10.005 16.751a1.874 1.874 0 1 1-.001-3.749 1.874 1.874 0 0 1 .001 3.749Zm0-8a1.874 1.874 0 1 1-.001-3.749 1.874 1.874 0 0 1 .001 3.749Zm0-7.985a1.874 1.874 0 1 1-.001-3.749 1.874 1.874 0 0 1 .001 3.749Z"/>
</svg>
